!!!!SEGMENT: Ror0114-Chi_vol_veder_quantunque_po_Natura.krn
!!!id: Ror0114
!!!AGN: Secular work
!!!voices: 5
!!!COM: Cipriano de Rore
!!!OTL: Chi vol veder quantunque po Natura
**kern	**text	**kern	**text	**kern	**text	**kern	**text	**kern	**text
*part5	*part5	*part4	*part4	*part3	*part3	*part2	*part2	*part1	*part1
*staff5	*staff5	*staff4	*staff4	*staff3	*staff3	*staff2	*staff2	*staff1	*staff1
*I"Bassus	*	*I"Tenor II	*	*I"Tenor I	*	*I"Altus	*	*I"Superius	*
*I'B	*	*I'T. II	*	*I'T. I	*	*I'A	*	*I'S	*
*clefF4	*	*clefGv2	*	*clefGv2	*	*clefGv2	*	*clefG2	*
*k[]	*	*k[]	*	*k[]	*	*k[]	*	*k[]	*
*MM140	*	*MM140	*	*MM140	*	*MM140	*	*MM140	*
*M2/1	*	*M2/1	*	*M2/1	*	*M2/1	*	*M2/1	*
*met(C)	*	*met(C)	*	*met(C)	*	*met(C)	*	*met(C)	*
=1	=1	=1	=1	=1	=1	=1	=1	=1	=1
!!section: Chi vol veder
!!!OMD: Chi vol veder
0r	.	1r	.	1r	.	2G	Chi	2r	.
.	.	.	.	.	.	2.E	vol	2g	Chi
.	.	2G	Chi	2r	.	.	.	2b	vol
.	.	.	.	.	.	4D	ve-	.	.
.	.	4A	vol	4r	.	4F	-der	4cc	ve-
.	.	4B	ve-	[4G	Chi	8EL	.	[4dd	-der
.	.	.	.	.	.	8DJ	.	.	.
=2	=2	=2	=2	=2	=2	=2	=2	=2	=2
1r	.	4.c	-der	4G]	.	4E	.	4dd]	.
.	.	.	.	2E	vol	4G	quan-	4cc	quan-
.	.	16BLL	.	.	.	.	.	.	.
.	.	16AJJ	.	.	.	.	.	.	.
.	.	1G	.	.	.	2G	-tun-	4cc	-tun-
.	.	.	.	4D	ve-	.	.	4b	-que
2C	Chi	.	.	4C	-der	4E	-que	4ee	po
.	.	.	.	4C	quan-	2G	po	4ee	Na-
4E	vol	2r	.	4C	-tun-	.	.	2cc	-tu-
4F	ve-	.	.	4AA	-que	4C	Na-	.	.
=3	=3	=3	=3	=3	=3	=3	=3	=3	=3
2.G	-der	4r	.	8DL	po	2G	-tu-	4b	-ra,
.	.	.	.	8C	.	.	.	.	.
.	.	4G	Chi	8BB	.	.	.	4dd	Chi
.	.	.	.	8AAJ	.	.	.	.	.
.	.	2B	vol	4GG	.	2G	-ra,	4dd	vol
4G	quan-	.	.	4D	Na-	.	.	4b	ve-
4F	-tun-	4c	ve-	2F	-tu-	2r	.	4a	-der
4D	-que	2d	-der	.	.	.	.	4a	quan-
4G	po	.	.	4D	-ra,	2G	Chi	4b	-tun-
4C	Na-	4c	quan-	4E	Chi	.	.	4cc	-que
=4	=4	=4	=4	=4	=4	=4	=4	=4	=4
2G	-tu-	4c	-tun-	4E	vol	2.G	vol	4g	po
.	.	4B	-que	4D	ve-	.	.	4b	Na-
2C	-ra	4e	po	4C	-der	.	.	2cc	-tu-
.	.	4e	Na-	4C	quan-	4G	ve-	.	.
4r	.	2d	-tu-	4GG	-tun-	4G	-der	4b	-ra
4D	E ’l	.	.	4AA	-que	4F#X	quan-	2dd	E ’l
[2G	ciel	4d	-ra	4BB	po	4G	-tun-	.	.
.	.	[4B	E ’l	4D	Na-	4G	-que	[4gg	ciel
=5	=5	=5	=5	=5	=5	=5	=5	=5	=5
4G]	.	4B]	.	2D	-tu-	4D	po	4gg]	.
4D	tra	2d	ciel	.	.	4A	Na-	4ff	tra
2A	noi,	.	.	4AA	-ra	2A	-tu-	2ee	noi,
.	.	4c#i	tra	4E	E ’l	.	.	.	.
1r	.	4d	noi,	4F	ciel	4A	-ra	4r	.
.	.	2G	E ’l	4D	tra	2B-X	E ’l	2dd	E ’l
.	.	.	.	2G	noi,	.	.	.	.
.	.	[4cnXny	ciel	.	.	[4G	ciel	[4ee	ciel
=6	=6	=6	=6	=6	=6	=6	=6	=6	=6
1r	.	4c]	.	4r	.	4G]	.	4ee]	.
.	.	4B-X	tra	4D	E ’l	4G	tra	4.dd	tra
.	.	2A	noi,	4F	ciel	4A	noi,	.	.
.	.	.	.	.	.	.	.	8cc#i	.
.	.	.	.	4E	tra	4A	ven-	4cc#i	.
2D	ven-	2f	ven-	4D	noi,	4A	-ga a	1dd	noi,
.	.	.	.	4D	ven-	4A	mi-	.	.
4G	-ga a	4d	-ga a	4D	-ga a	4B-i	-rar	.	.
4G	mi-	4e	mi-	4BB	mi-	4G	co-	.	.
=7	=7	=7	=7	=7	=7	=7	=7	=7	=7
4F	-rar	4f	-rar	4C	-rar	2A	-ste-	2r	.
4A	co-	4e	co-	4C	co-	.	.	.	.
2G	-ste-	2g	-ste-	1BB	-ste-	2D	-i,	4r	.
.	.	.	.	.	.	.	.	4dd	ven-
2G	-i,	2d	-i,	.	.	4r	.	4dd	-ga a
.	.	.	.	.	.	4G	ven-	4b	mi-
2r	.	2r	.	2AA	-i,	4F	-ga a	4.cc	-rar
.	.	.	.	.	.	4E	mi-	.	.
.	.	.	.	.	.	.	.	8dd	.
=8	=8	=8	=8	=8	=8	=8	=8	=8	=8
2r	.	2A	ven-	2r	.	4c	-rar	4ee	.
.	.	.	.	.	.	4c	co-	4ee	co-
4r	.	4d	-ga a	4r	.	2A	-ste-	2ff	-ste-
2F	ven-	4c	mi-	2AA	ven-	.	.	.	.
.	.	2.f	-rar	.	.	4A	-i,	4cc	-i,
2D	-ga a	.	.	4D	-ga a	4A	ven-	4dd	ven-
.	.	.	.	4D	mi-	4B	-ga a	4dd	-ga a
4E	mi-	4e	co-	[4C	-rar	4c	mi-	4gg	mi-
=9	=9	=9	=9	=9	=9	=9	=9	=9	=9
2F	-rar	2A	-ste-	4C]	.	8cL	-rar	2.ff	-rar
.	.	.	.	.	.	8B	.	.	.
.	.	.	.	4C	co-	8A	.	.	.
.	.	.	.	.	.	8GJ	.	.	.
2D	co-	2A	-i,	4.D	-ste-	4F	.	.	.
.	.	.	.	.	.	4.A	co-	4ff	co-
.	.	.	.	8C	.	.	.	.	.
2G	-ste-	4r	.	4.BB	.	.	.	2dd	-ste-
.	.	.	.	.	.	8G	.	.	.
.	.	4B	Ch’è	.	.	4.G	-ste-	.	.
.	.	.	.	16AALL	.	.	.	.	.
.	.	.	.	16GGJJ	.	.	.	.	.
4D	-i,	[2d	so-	2AA	.	.	.	2dd	-i,
.	.	.	.	.	.	8F#i	.	.	.
4D	Ch’è	.	.	.	.	4F#i	.	.	.
=10	=10	=10	=10	=10	=10	=10	=10	=10	=10
2G	so-	4d]	.	4GG	-i,	1G	-i,	4r	.
.	.	2G	-la un	4BB	Ch’è	.	.	4dd	Ch’è
2C	-la un	.	.	2C	so-	.	.	2ee	so-
.	.	2g	sol,	.	.	.	.	.	.
1G	sol,	.	.	2BB	-la un	4r	.	2.dd	-la un
.	.	4g	non	.	.	4D	Ch’è	.	.
.	.	2d	pur	2BB	sol,	2G	so-	.	.
.	.	.	.	.	.	.	.	[4gg	sol,
=11	=11	=11	=11	=11	=11	=11	=11	=11	=11
4r	.	4e	a	1r	.	2C	-la un	4gg]	.
4A	non	2c	gli oc-	.	.	.	.	4ee	non
4E	pur	.	.	.	.	4G	sol,	4ee	pur
4G	a	4B	-chi	.	.	4G	non	4dd	a
4A	gli oc-	4c	mie-	4r	.	4E	pur	4cc	gli oc-
4A	-chi	4c	-i,	4AA	Ch’è	4F#X	a	4a	-chi
4.G	mie-	4r	.	2D	so-	[2G	gli oc-	2b	mie-
.	.	4B	Ch’è	.	.	.	.	.	.
8F	.	.	.	.	.	.	.	.	.
=12	=12	=12	=12	=12	=12	=12	=12	=12	=12
2E	.	2e	so-	2GG	-la un	4G]	.	2b	-i,
.	.	.	.	.	.	4G	-chi	.	.
4D	-i,	2A	-la un	1D	sol,	2F#i	mie-	4r	.
4D	Ch’è	.	.	.	.	.	.	4dd	Ch’è
2G	so-	4B	sol,	.	.	1G	-i,	4dd	so-
.	.	4B	non	.	.	.	.	4b	-la un
2C	-la un	4c	pur	4r	.	.	.	4ee	sol,
.	.	8GL	a	4E	non	.	.	4cc	non
.	.	8AJ	.	.	.	.	.	.	.
=13	=13	=13	=13	=13	=13	=13	=13	=13	=13
4G	sol,	8BL	.	4D	pur	4r	.	4b	pur
.	.	8cJ	.	.	.	.	.	.	.
4D	non	4d	.	4F	a	4A	non	8aL	a
.	.	.	.	.	.	.	.	8bJ	.
4A	pur	4c	gli oc-	4E	gli oc-	4A	pur	8ccL	.
.	.	.	.	.	.	.	.	8ddJ	.
4E	a	4B	-chi	4E	-chi	4G	a	4ee	.
4F	gli oc-	2.A	mie-	4.D	mie-	4F	gli oc-	4a	gli oc-
4D	-chi	.	.	.	.	4F	-chi	4a	-chi
.	.	.	.	8C	.	.	.	.	.
2E	mie-	.	.	2BB	.	2E	mie-	2ee	mie-
.	.	4G#X	-i,	.	.	.	.	.	.
=14	=14	=14	=14	=14	=14	=14	=14	=14	=14
2A	-i,	4r	.	4AA	-i,	2E	-i,	4cc#X	-i,
.	.	4A	Ma ’l	2E	Ma ’l	.	.	2cc#i	Ma ’l
4r	.	4A	mon-	.	.	2r	.	.	.
4D	Ma ’l	4d	-do	4F	mon-	.	.	2dd	mon-
4G	mon-	4.B	cie-	4D	-do	2r	.	.	.
4E	-do	.	.	2G	cie-	.	.	4ee	-do
.	.	8c	.	.	.	.	.	.	.
2D	cie-	2d	.	.	.	4r	.	4.a	cie-
.	.	.	.	4F	-co,	4D	Ma ’l	.	.
.	.	.	.	.	.	.	.	8b	.
=15	=15	=15	=15	=15	=15	=15	=15	=15	=15
4C	-co,	4G	-co,	2.E	che	2G	mon-	2cc	.
4C	che	2g	che	.	.	.	.	.	.
4C	ver-	.	.	.	.	4E	-do	2cc	-co,
2F	-tu	2f	ver-	4AA	ver-	4.A	cie-	.	.
.	.	.	.	4C	-tu	.	.	1r	.
.	.	.	.	.	.	8G	.	.	.
4C	non	2e	-tu	4C	non	2G	.	.	.
2c	cu-	.	.	2AA	cu-	.	.	.	.
.	.	8dL	.	.	.	4F#i	.	.	.
.	.	8cJ	.	.	.	.	.	.	.
=16	=16	=16	=16	=16	=16	=16	=16	=16	=16
2B	-ra,	4d	.	4GG	-ra,	4G	-co,	2b	Ma ’l
.	.	4G	non	4G	Ma ’l	4D	Ma ’l	.	.
4r	.	2A	cu-	4F	mon-	4A	mon-	4cc	mon-
2c	che	.	.	4E	-do	4A	-do	4a	-do
.	.	2G	-ra,	2G	cie-	2D	cie-	2dd	cie-
4B	ver-	.	.	.	.	.	.	.	.
4.A	-tu	4r	.	4C	-co,	4E	-co,	2cc	-co,
.	.	4c	Ma ’l	[4C	che	4E	Ma ’l	.	.
8G	.	.	.	.	.	.	.	.	.
=17	=17	=17	=17	=17	=17	=17	=17	=17	=17
4F	.	4A	mon-	4C]	.	4F	mon-	4r	.
4G	non	4d	-do	4BB	ver-	4D	-do	2gg	che
2D	cu-	2d	cie-	4AA	-tu	2A	cie-	.	.
.	.	.	.	4D	non	.	.	4ff	ver-
4.E	-ra:	4B	-co,	2GG	cu-	4G	-co,	2ee	-tu
.	.	2g	che	.	.	2c	che	.	.
8F	.	.	.	.	.	.	.	.	.
2G	.	.	.	2GG	-ra:	.	.	2dd	non
.	.	4d	ver-	.	.	4B	ver-	.	.
=18	=18	=18	=18	=18	=18	=18	=18	=18	=18
2r	.	4f	-tu	2r	.	4A	-tu	4.cc	cu-
.	.	4e	non	.	.	4G	non	.	.
.	.	.	.	.	.	.	.	8b	.
2D	Et	2d	cu-	2AA	Et	2F#X	cu-	4dd	.
.	.	.	.	.	.	.	.	4dd	-ra;
4.d	ven-	2G	-ra:	4.BB	ven-	1G	-ra:	4r	.
.	.	.	.	.	.	.	.	2dd	Et
8c	.	.	.	8C	.	.	.	.	.
8BL	.	4r	.	8DL	.	.	.	.	.
8GJ	.	.	.	8BBJ	.	.	.	.	.
[4c	.	4g	Et	4E	.	.	.	[4cc	ven-
=19	=19	=19	=19	=19	=19	=19	=19	=19	=19
4c]	.	4g	ven-	4E	-ga	2r	.	4cc]	.
4G	-ga	4g	-ga	4.D	to-	.	.	4b	-ga
2A	to-	2e	to-	.	.	4r	.	2ee	to-
.	.	.	.	8C#i	.	.	.	.	.
.	.	.	.	4C#i	.	4A	Et	.	.
4D	-sto,	4f	-sto,	2D	-sto,	4.A	ven-	4dd	-sto,
2D	Et	4f	Et	.	.	.	.	2a	Et
.	.	.	.	.	.	8G	.	.	.
.	.	4.d	ven-	2r	.	4F#X	.	.	.
[4G	ven-	.	.	.	.	4G	-ga	8bL	ven-
.	.	8c	.	.	.	.	.	8ccJ	.
=20	=20	=20	=20	=20	=20	=20	=20	=20	=20
4G]	.	8BL	.	4r	.	2G	to-	8ddL	.
.	.	8GJ	.	.	.	.	.	8bJ	.
4C	-ga	2c	.	4E	per-	.	.	4ee	.
4.G	to-	.	.	4E	-che	2G	-sto,	4ee	-ga
.	.	4B	-ga	2G	mor-	.	.	4.dd	to-
8F	.	.	.	.	.	.	.	.	.
2E	.	2e	to-	.	.	4r	.	.	.
.	.	.	.	.	.	.	.	16cc#iLL	.
.	.	.	.	.	.	.	.	16bJJ	.
.	.	.	.	4G	-te	4E	per-	4cc#i	.
2D	-sto,	4A	-sto,	[2F	fu-	4A	-che	2dd	.
.	.	4A	per-	.	.	[4A	mor-	.	.
=21	=21	=21	=21	=21	=21	=21	=21	=21	=21
2r	.	2d	-che	2F]	.	4A]	.	1.dd	-sto,
.	.	.	.	.	.	4A	-te	.	.
2G	per-	2.B-X	mor-	4D	-ra	2G	fu-	.	.
.	.	.	.	2D	Pri-	.	.	.	.
4B-X	-che	.	.	.	.	4F	-ra	.	.
2B-i	mor-	4G	-te	4D	-ma i	4G	Pri-	.	.
.	.	2d	fu-	4D	mi-	4F	-ma i	2r	.
4B-i	-te	.	.	[4F	-glio-	4D	mi-	.	.
=22	=22	=22	=22	=22	=22	=22	=22	=22	=22
2A	fu-	2c	-ra,	4F]	.	2A	-glio-	4r	.
.	.	.	.	4E	-ri,	.	.	4ee	per-
2G	-ra	2B	per-	4r	.	4D	-ri,	4gg	-che
.	.	.	.	4G	per-	4D	per-	2gg	mor-
2G	Pri-	4d	-che	4G	-che	4B-X	-che	.	.
.	.	2d	mor-	4.D	mor-	2B-i	mor-	4gg	-te
4D	-ma i	.	.	.	.	.	.	[2ff	fu-
.	.	.	.	8E	.	.	.	.	.
4D	mi-	4d	-te	[4F	.	4A	-te	.	.
=23	=23	=23	=23	=23	=23	=23	=23	=23	=23
2F	-glio-	2c	fu-	4F]	.	2A	fu-	4ff]	.
.	.	.	.	4C	-te	.	.	4ff	-ra
2G	-ri,	2B	-ra	2G	fu-	2D	-ra	4r	.
.	.	.	.	.	.	.	.	2dd	Pri-
2r	.	2B	Pri-	2D	-ra	2G	Pri-	.	.
.	.	.	.	.	.	.	.	4dd	-ma i
2D	et	2d	-ma i	2F	Pri-	2A	-ma i	4dd	mi-
.	.	.	.	.	.	.	.	[4ff	-glio-
=24	=24	=24	=24	=24	=24	=24	=24	=24	=24
4F	la-	4A	mi-	4C	-ma i	4A	mi-	4ff]	.
4C	-scia	2c	-glio-	4C	mi-	2G	-glio-	4ee	-ri,
4.G	star	.	.	2.D	-glio-	.	.	4r	.
.	.	4B	-ri,	.	.	4G	-ri,	4dd	et
8A	.	.	.	.	.	.	.	.	.
4B-X	.	4r	.	.	.	4r	.	4g	la-
4A	i	4c	et	4C	-ri,	4E	et	4a	-scia
2G	re-	4.d	la-	4r	.	4G	la-	8bL	star
.	.	.	.	.	.	.	.	8ccJ	.
.	.	.	.	4BB	et	4D	-scia	[4dd	.
.	.	8e	.	.	.	.	.	.	.
=25	=25	=25	=25	=25	=25	=25	=25	=25	=25
4.F	-i,	4f	.	4C	la-	4.A	star	8ddL]	.
.	.	.	.	.	.	.	.	8ccJ	.
.	.	4f	-scia	4AA	-scia	.	.	2cc	.
8E	.	.	.	.	.	8B	.	.	.
2C	.	2g	star	4.E	star	2c	.	.	.
.	.	.	.	.	.	.	.	4ee	i
.	.	.	.	8F	.	.	.	.	.
4r	.	4G	i	4G	.	4B	i	2dd	re-
4D	et	4.d	re-	4F	i	4.A	re-	.	.
4E	la-	.	.	2E	re-	.	.	4b	-i,
.	.	8B	.	.	.	8G	.	.	.
4E	-scia	4c#X	.	.	.	[4G	.	4ee	et
=26	=26	=26	=26	=26	=26	=26	=26	=26	=26
4G	star	2d	-i,	4BB	-i,	8GL]	.	4dd	la-
.	.	.	.	.	.	8DJ	.	.	.
4F	i	.	.	4D	et	4F	.	4a	-scia
1E	re-	2r	.	4C	la-	2G	-i,	4.ee	star
.	.	.	.	4BB	-scia	.	.	.	.
.	.	.	.	.	.	.	.	8ff	.
.	.	4r	.	4BB	star	2E	et	2gg	.
.	.	4B	et	4E	i	.	.	.	.
4D	-i,	4d	la-	4.AA	re-	4A	la-	4ff	i
4A	et	4c#X	-scia	.	.	4E	-scia	[4ee	re-
.	.	.	.	16GGLL	.	.	.	.	.
.	.	.	.	16AAJJ	.	.	.	.	.
=27	=27	=27	=27	=27	=27	=27	=27	=27	=27
4G	la-	2d	star	4BB-X	.	4G	star	8eeL]	.
.	.	.	.	.	.	.	.	8ddJ	.
4D	-scia	.	.	4AA	-i:	4F	i	2dd	.
4.A	star	4A	i	4r	.	2E	re-	.	.
.	.	2a	re-	4AA	Que-	.	.	4cc#i	.
8G	.	.	.	.	.	.	.	.	.
4F#X	.	.	.	4AA	-sta a-	[1D	-i:	2dd	-i:
4G	i	4.g	.	4BB-i	-spet-	.	.	.	.
2D	re-	.	.	2AA	-ta-	.	.	2r	.
.	.	8f#i	.	.	.	.	.	.	.
.	.	4f#i	.	.	.	.	.	.	.
=28	=28	=28	=28	=28	=28	=28	=28	=28	=28
2G	-i:	2g	-i:	4GG	-ta al	2D]	.	2b	Que-
.	.	.	.	2G	re-	.	.	.	.
4r	.	4r	.	.	.	2r	.	4b	-sta a-
4E	Que-	4G	Que-	4G	-gno	.	.	4cc	-spet-
4E	-sta a-	4B	-sta a-	4G	de	2r	.	2b	-ta-
4G	-spet-	4B	-spet-	4D	gli	.	.	.	.
[2F	-ta-	2c	-ta-	2F	de-	4r	.	2a	-ta al
.	.	.	.	.	.	[4A	Que-	.	.
=29	=29	=29	=29	=29	=29	=29	=29	=29	=29
2F]	.	4A	-ta al	2C	-i,	4A]	.	4.cc	re-
.	.	2a	re-	.	.	4A	-sta a-	.	.
.	.	.	.	.	.	.	.	8dd	.
2.E	-ta al	.	.	2r	.	4c	-spet-	2ee	.
.	.	4g	-gno	.	.	2B	-ta-	.	.
.	.	4g	de	4r	.	.	.	4ee	-gno
2F	re-	4f	gli	4C	Que-	4A	-ta al	2cc	de
.	.	2f	de-	4AA	-sta a-	2A	re-	.	.
8EL	.	.	.	4AA	-spet-	.	.	4dd	gli
8DJ	.	.	.	.	.	.	.	.	.
=30	=30	=30	=30	=30	=30	=30	=30	=30	=30
2G	.	2d	-i,	4.BB	-ta-	4G	-gno	4.dd	de-
.	.	.	.	.	.	4G	de	.	.
.	.	.	.	8C	.	.	.	8ee	.
2D	-gno	4r	.	2D	.	4F	gli	4ff	.
.	.	2A	Que-	.	.	2A	de-	4ff	-i,
4F	de	.	.	4C	-ta al	.	.	4r	.
4C	gli	4c	-sta a-	2E	re-	4G	.	2ee	Que-
4.E	de-	4c	-spet-	.	.	2G	-i,	.	.
.	.	[4B	-ta-	4E	-gno	.	.	4gg	-sta a-
8F	.	.	.	.	.	.	.	.	.
=31	=31	=31	=31	=31	=31	=31	=31	=31	=31
4G	.	4B]	.	4D	de	4r	.	4gg	-spet-
4D	.	4A	-ta al	4D	gli	4A	Que-	2ff	-ta-
2A	-i,	8AL	re-	8CL	de-	2.c	-sta a-	.	.
.	.	8B	.	8D	.	.	.	.	.
.	.	8c	.	8E	.	.	.	4ee	-ta al
.	.	8dJ	.	8FJ	.	.	.	.	.
2E	Que-	4e	.	2G	.	.	.	2ee	re-
.	.	4e	-gno	.	.	4B	-spet-	.	.
4G	-sta a-	4B	de	2G	-i,	2B	-ta-	4dd	-gno
4G	-spet-	4B	gli	.	.	.	.	[4dd	de
=32	=32	=32	=32	=32	=32	=32	=32	=32	=32
2F	-ta-	4.c	de-	2r	.	4A	-ta al	8ddL]	.
.	.	.	.	.	.	.	.	8ccJ	.
.	.	.	.	.	.	2A	re-	2cc	.
.	.	8d	.	.	.	.	.	.	.
2E	-ta al	2e	.	4r	.	.	.	.	.
.	.	.	.	2E	Co-	4G#X	-gno	4b	gli
2.A	re-	4c	-i,	.	.	4A	de	8aL	de-
.	.	.	.	.	.	.	.	8b	.
.	.	2c	Co-	4E	-sa	4A	gli	8cc	.
.	.	.	.	.	.	.	.	8ddJ	.
.	.	.	.	4.E	bel-	2A	de-	4ee	.
4A	-gno	4c	-sa	.	.	.	.	4ee	-i,
.	.	.	.	8F	.	.	.	.	.
=33	=33	=33	=33	=33	=33	=33	=33	=33	=33
2.G	de-	2B	bel-	4G	.	4D	-i,	4r	.
.	.	.	.	4D	-la	2G	Co-	2b	Co-
.	.	4G	-la	4D	mor-	.	.	.	.
4F	-gli	4c	mor-	2F	-tal	4A	-sa	4cc	-sa
4.F	de-	4A	-tal	.	.	2F	bel-	2cc	bel-
.	.	2A	pas-	4.FF	pas-	.	.	.	.
8E	.	.	.	.	.	.	.	.	.
2D	.	.	.	.	.	4F	-la	4dd	-la
.	.	.	.	8GGL	.	.	.	.	.
.	.	4d	-sa et	8AA	.	4F	mor-	4dd	mor-
.	.	.	.	8BBJ	.	.	.	.	.
=34	=34	=34	=34	=34	=34	=34	=34	=34	=34
2C	-i,	4G	non	8CL	.	4E	-tal	2ee	-tal
.	.	.	.	8DJ	.	.	.	.	.
.	.	2c	du-	2E	.	2G	pas-	.	.
4r	.	.	.	.	.	.	.	2gg	pas-
[4G	Co-	4B	-ra,	2G	-sa et	4D	-sa et	.	.
4G]	.	4r	.	.	.	4B-X	non	4dd	-sa et
4A	-sa	2c	Co-	4C	non	2A	du-	4ff	non
2A	bel-	.	.	4.E	du-	.	.	2ee	du-
.	.	4c	-sa	.	.	4A	-ra,	.	.
.	.	.	.	8F	.	.	.	.	.
=35	=35	=35	=35	=35	=35	=35	=35	=35	=35
4B	-la	2G	bel-	4G	.	2r	.	2dd	-ra,
4B	mor-	.	.	4G	-ra,	.	.	.	.
2c	-tal	4A	-la	4r	.	2E	Co-	4r	.
.	.	4A	mor-	4C	Co-	.	.	4cc	Co-
2F	pas-	2A	-tal,	4C	-sa	4F	-sa	4cc	-sa
.	.	.	.	4C	bel-	2F	bel-	4cc	bel-
4F	-sa et	2r	.	4D	-la	.	.	4a	-la
4E	non	.	.	4E	mor-	[4G	-la	4cc	mor-
=36	=36	=36	=36	=36	=36	=36	=36	=36	=36
2G	du-	2B	Co-	2D	-tal	4G]	.	2b	-tal
.	.	.	.	.	.	4G	mor-	.	.
4.F	-ra,	4c	-sa	2F	pas-	2A	-tal	2r	.
.	.	2c	bel-	.	.	.	.	.	.
8G	.	.	.	.	.	.	.	.	.
4A	.	.	.	4E	-sa et	4r	.	4r	.
2G	Co-	2d	-la	4G	non	2B	Co-	4dd	Co-
.	.	.	.	2G	du-	.	.	4dd	-sa
4G	-sa	4d	mor-	.	.	4B	-sa	[4gg	bel-
=37	=37	=37	=37	=37	=37	=37	=37	=37	=37
2.E	bel-	2e	-tal	4G	-ra,	2B	bel-	4gg]	.
.	.	.	.	2GG	Co-	.	.	2ee	-la
.	.	2.g	pas-	.	.	4B	-la	.	.
4C	-la	.	.	4C	-sa	4c	mor-	4ee	mor-
2C	mor-	.	.	2C	bel-	4G	-tal	2ee	-tal
.	.	2G	-sa et	.	.	4c	pas-	.	.
2G	-tal	.	.	4D	-la	4B-X	-sa et	4r	.
.	.	4B-X	non	4D	mor-	4G	non	[4dd	pas-
=38	=38	=38	=38	=38	=38	=38	=38	=38	=38
2r	.	2A	du-	2E	-tal	2A	du-	4dd]	.
.	.	.	.	.	.	.	.	4cc	-sa et
2E	pas-	4G	-ra,	2G	pas-	4E	-ra,	4b	non
.	.	4c	pas-	.	.	2G	et	4.ee	du-
4G	-sa et	4B	-sa et	4D	-sa et	.	.	.	.
.	.	.	.	.	.	.	.	8dd	.
4D	non	4d	non	4F	non	4A	non	2dd	.
2A	du-	2A	du-	2E	du-	2A	du-	.	.
.	.	.	.	.	.	.	.	4cc#i	.
=39	=39	=39	=39	=39	=39	=39	=39	=39	=39
0D	-ra.	0A	-ra.	0D	-ra.	0F#X	-ra.	0dd	-ra.
=40||	=40||	=40||	=40||	=40||	=40||	=40||	=40||	=40||	=40||
!!section: Vendrà, s'arriva
!!!OMD: Vendrà, s'arriva
1r	.	1G	Ve-	2r	.	1r	.	2r	.
.	.	.	.	2D	Ve-	.	.	2b	Ve-
1r	.	2c	-drà,	4E	-drà,	2G	Ve-	2.cc	-drà,
.	.	.	.	2E	s’ar-	.	.	.	.
.	.	4A	s’ar-	.	.	[2A	-drà,	.	.
.	.	[4d	-ri-	4F#X	-ri-	.	.	4a	s’ar-
=41	=41	=41	=41	=41	=41	=41	=41	=41	=41
1r	.	4d]	.	4F#X	-va a	4A]	.	2dd	-ri-
.	.	4G	-va a	4.G	tem-	4B	s’ar-	.	.
.	.	2c	tem-	.	.	4c	-ri-	2ee	-va a
.	.	.	.	8FnXi	.	.	.	.	.
.	.	.	.	4E	.	4G	-va a	.	.
1D	Ve-	2A	-po,	2D	-po,	2A	tem-	4.ff	tem-
.	.	.	.	.	.	.	.	8ee	.
.	.	2A	Ve-	2r	.	4F#X	-po,	8ddL	.
.	.	.	.	.	.	.	.	8ccJ	.
.	.	.	.	.	.	4F#i	Ve-	[4dd	.
=42	=42	=42	=42	=42	=42	=42	=42	=42	=42
2G	-drà,	2.B	-drà,	2D	Ve-	2.G	-drà,	8ddL]	.
.	.	.	.	.	.	.	.	8ccJ	.
.	.	.	.	.	.	.	.	2b	.
4E	s’ar-	.	.	2.E	-drà,	.	.	.	.
2A	-ri-	2c#X	s’ar-	.	.	4E	s’ar-	4a	-po,
.	.	.	.	.	.	2A	-ri-	4r	.
4D	-va a	2d	-ri-	4F#X	s’ar-	.	.	2dd	o-
2G	tem-	.	.	[2G	-ri-	2B	-va a	.	.
.	.	[4G	-va a	.	.	.	.	4dd	-gni
=43	=43	=43	=43	=43	=43	=43	=43	=43	=43
2C	-po,	4G]	.	2G]	.	2c	tem-	4.ee	vir-
.	.	4.c	tem-	.	.	.	.	.	.
.	.	.	.	.	.	.	.	8ff	.
4r	.	.	.	2E	-va a	2G	-po,	4gg	.
.	.	8B	.	.	.	.	.	.	.
4C	o-	4c	.	.	.	.	.	4.ee	-tu-
4F	-gni	2A	-po,	2F	tem-	4r	.	.	.
.	.	.	.	.	.	.	.	8dd	.
4D	vir-	.	.	.	.	2A	o-	2dd	.
2A	-tu-	4r	.	2E	-po,	.	.	.	.
.	.	4A	o-	.	.	4A	-gni	4cc#i	.
=44	=44	=44	=44	=44	=44	=44	=44	=44	=44
2G	-te,	4B-X	-gni	4r	.	4.D	vir-	2dd	-te,
.	.	4B-i	vir-	4G	o-	.	.	.	.
.	.	.	.	.	.	8E	.	.	.
2r	.	2A	-tu-	4C	-gni	4F	.	4r	.
.	.	.	.	4C	vir-	4.E	-tu-	4a	O-
4r	.	2G	-te,	2G	-tu-	.	.	4b-X	-gni
.	.	.	.	.	.	8D	.	.	.
4G	O-	.	.	.	.	4.D	.	4b-i	bel-
4A	-gni	2r	.	2E	-te,	.	.	2a	-lez-
.	.	.	.	.	.	8C#i	.	.	.
4A	bel-	.	.	.	.	4C#i	.	.	.
=45	=45	=45	=45	=45	=45	=45	=45	=45	=45
2B-X	-lez-	1r	.	4r	.	2D	-te,	4f	-za,
.	.	.	.	4D	O-	.	.	2ff	O-
2A	-za,	.	.	4D	-gni	4r	.	.	.
.	.	.	.	4C	bel-	2A	O-	2ee	-gni
4r	.	2d	O-	2F	-lez-	.	.	.	.
4D	O-	.	.	.	.	4A	-gni	4dd	bel-
4A	-gni	4c	-gni	2E	-za,	4A	bel-	2ee	-lez-
4G#X	bel-	4B	bel-	.	.	[4B	-lez-	.	.
=46	=46	=46	=46	=46	=46	=46	=46	=46	=46
2A	-lez-	2c	-lez-	2r	.	8BL]	.	2ee	-za,
.	.	.	.	.	.	8AJ	.	.	.
.	.	.	.	.	.	4.A	.	.	.
2E	-za,	2B	-za,	2E	o-	.	.	4r	.
.	.	.	.	.	.	8G#X	.	.	.
.	.	.	.	.	.	4G#i	.	2ee	o-
4r	.	4r	.	4C	-gni	2A	-za,	.	.
2F	o-	2A	o-	4C	re-	.	.	4cc	-gni
.	.	.	.	4.F	-al	4r	.	4cc	re-
4D	-gni	4d	-gni	.	.	[4A	o-	[4ff	-al
.	.	.	.	8E	.	.	.	.	.
=47	=47	=47	=47	=47	=47	=47	=47	=47	=47
4D	re-	4d	re-	4D	.	4A]	.	4ff]	.
4.A	-al	4.e	-al	4C	co-	2c	-gni	4ee	co-
.	.	.	.	4.E	-stu-	.	.	2ee	-stu-
8GL	.	8f	.	.	.	.	.	.	.
8E	.	2g	.	.	.	2B	re-	.	.
8FJ	.	.	.	8D	.	.	.	.	.
4G	.	.	.	8BBL	.	.	.	2dd	-me
.	.	.	.	8CJ	.	.	.	.	.
4D	co-	4f	co-	4.D	.	2A	-al	.	.
2A	-stu-	2e	-stu-	.	.	.	.	2r	.
.	.	.	.	8C	.	.	.	.	.
.	.	.	.	4C	.	4A	co-	.	.
=48	=48	=48	=48	=48	=48	=48	=48	=48	=48
4D	-me	2d	-me	1AA	-me	1.A	-stu-	2ff	Giun-
4D	Giun-	.	.	.	.	.	.	.	.
4C#X	-ti in	4r	.	.	.	.	.	4ee	-ti in
4D	un	2f	Giun-	.	.	.	.	4dd	un
2A	cor-	.	.	1r	.	.	.	2cc	cor-
.	.	4e	-ti in	.	.	.	.	.	.
4D	-po	4d	un	.	.	2F	-me	4a	-po
[4F	con	[4c	cor-	.	.	.	.	[4a	con
=49	=49	=49	=49	=49	=49	=49	=49	=49	=49
4F]	.	4c]	.	2.F	Giun-	4r	.	4a]	.
4F	mi-	4A	-po	.	.	4C	Giun-	4cc	mi-
4D	-ra-	4A	con	.	.	4F	-ti in	4dd	-ra-
4C	-bil	4c	mi-	4E	-ti in	4G	un	4ee	-bil
4.F	tem-	4A	-ra-	4D	un	2A	cor-	2ff	tem-
.	.	4A	-bil	2C	cor-	.	.	.	.
8G	.	.	.	.	.	.	.	.	.
8AL	.	2A	tem-	.	.	2c	-po	2ee	-pre,
8BJ	.	.	.	.	.	.	.	.	.
[4c	.	.	.	4AA	-po	.	.	.	.
=50	=50	=50	=50	=50	=50	=50	=50	=50	=50
4c]	.	2e	-pre,	2AA	con	2A	con	4.cc	Giun-
4A	-pre,	.	.	.	.	.	.	.	.
.	.	.	.	.	.	.	.	8dd	.
4r	.	2r	.	4C	mi-	4G	mi-	4ee	.
4d	Giun-	.	.	4D	-ra-	4F	-ra-	2a	-ti in
4c#X	-ti in	1r	.	4E	-bil	4E	-bil	.	.
4d	un	.	.	2F	tem-	2D	tem-	4a	un
2A	cor-	.	.	.	.	.	.	2a	cor-
.	.	.	.	4E	-pre,	4C	-pre,	.	.
=51	=51	=51	=51	=51	=51	=51	=51	=51	=51
2D	-po	2f	Giun-	4r	.	4r	.	2a	-po
.	.	.	.	4D	Giun-	4AA	Giun-	.	.
4r	.	4e	-ti in	4C	-ti in	4AA	-ti in	4r	.
4D	con	4d	un	4F	un	4AA	un	2a	con
4F	mi-	2c	cor-	2.F	cor-	2A	cor-	.	.
4.F	-ra-	.	.	.	.	.	.	4cc	mi-
.	.	4A	-po	.	.	2A	-po	4dd	-ra-
8G	.	.	.	.	.	.	.	.	.
4A	.	[4A	con	4E	-po	.	.	4cc	-bil
=52	=52	=52	=52	=52	=52	=52	=52	=52	=52
4D	-bil	4A]	.	2.D	con	4r	.	8ffL	tem-
.	.	.	.	.	.	.	.	8ee	.
2G	tem-	4B-X	mi-	.	.	4G	con	8dd	.
.	.	.	.	.	.	.	.	8ccJ	.
.	.	4G	-ra-	.	.	4B-X	mi-	2dd	.
4F#X	.	4A	-bil	4D	mi-	4.A	-ra-	.	.
2G	.	2B-i	tem-	2D	-ra-	.	.	2dd	-pre.
.	.	.	.	.	.	8G	.	.	.
.	.	.	.	.	.	2G	.	.	.
2D	-pre.	2A	-pre.	2D	-bil	.	.	4r	.
.	.	.	.	.	.	4F#i	-bil	4dd	All-
=53	=53	=53	=53	=53	=53	=53	=53	=53	=53
2r	.	4r	.	4.BB	tem-	2G	tem-	2dd	-hor
.	.	4G	All-	.	.	.	.	.	.
.	.	.	.	8C	.	.	.	.	.
2G	All-	1B	-hor	2D	.	2G	-pre.	2dd	di-
2E	-hor	.	.	2GG	-pre.	4r	.	1ee	-rà,
.	.	.	.	.	.	4G	All-	.	.
2E	di-	2B	di-	4r	.	[2G	-hor	.	.
.	.	.	.	4G	All-	.	.	.	.
=54	=54	=54	=54	=54	=54	=54	=54	=54	=54
2C	-rà,	1c	-rà,	2E	-hor	2G]	.	4r	.
.	.	.	.	.	.	.	.	4ee	all-
4r	.	.	.	2E	di-	2G	di-	2ee	-hor
4C	All-	.	.	.	.	.	.	.	.
2F	-hor	4r	.	1F	-rà	1A	-rà	2cc	di-
.	.	4A	All-	.	.	.	.	.	.
2D	di-	2A	-hor	.	.	.	.	[2dd	-rà
=55	=55	=55	=55	=55	=55	=55	=55	=55	=55
1G	-rà	1B	di-	4r	.	2r	.	1dd]	.
.	.	.	.	4D	che	.	.	.	.
.	.	.	.	4D	mie	4r	.	.	.
.	.	.	.	2G	ri-	4D	che	.	.
1r	.	1c	-rà	.	.	4E	mie	4r	.
.	.	.	.	4E	-me	2G	ri-	4ee	che
.	.	.	.	2E	son	.	.	4ee	mie
.	.	.	.	.	.	4G	-me	[4cc	ri-
=56	=56	=56	=56	=56	=56	=56	=56	=56	=56
1r	.	1r	.	2F	mu-	4A	son	4cc]	.
.	.	.	.	.	.	2A	mu-	4dd	-me
.	.	.	.	2C	-te,	.	.	2ee	son
.	.	.	.	.	.	4G	-te,	.	.
2r	.	1r	.	2r	.	2r	.	2.ff	mu-
4r	.	.	.	4r	.	4r	.	.	.
4D	che	.	.	[4F	che	4A	che	4dd	-te,
=57	=57	=57	=57	=57	=57	=57	=57	=57	=57
4D	mie	2r	.	4F]	.	4A	mie	4r	.
2G	ri-	.	.	4D	mie	2B	ri-	4dd	che
.	.	4r	.	2G	ri-	.	.	4dd	mie
4E	-me	4e	che	.	.	2B	-me	2gg	ri-
2E	son	4e	mie	4GG	-me	.	.	.	.
.	.	2c	ri-	4GG	son	4c	son	4ee	-me
2F	mu-	.	.	4.AA	mu-	2A	mu-	4cc	son
.	.	4d	-me	.	.	.	.	[4ff	mu-
.	.	.	.	8BB	.	.	.	.	.
=58	=58	=58	=58	=58	=58	=58	=58	=58	=58
2C	-te,	2e	son	4C	.	2G	-te,	4ff]	.
.	.	.	.	4C	-te,	.	.	4ee	-te,
2r	.	2f	mu-	2r	.	2r	.	2r	.
2C	L’in-	2e	-te,	2GG	L’in-	4r	.	2ee	L’in-
.	.	.	.	.	.	2G	L’in-	.	.
[2G	-ge-	2r	.	2BB	-ge-	.	.	4.dd	-ge-
.	.	.	.	.	.	[4D	-ge-	.	.
.	.	.	.	.	.	.	.	8cc	.
=59	=59	=59	=59	=59	=59	=59	=59	=59	=59
4G]	.	1r	.	4BB	-gno of-	4D]	.	4b	.
4F	-gno of-	.	.	2D	-fe-	4F	-gno of-	4a	-gno of-
2E	-fe-	.	.	.	.	2G	-fe-	2ee	-fe-
.	.	.	.	4C	-so	.	.	.	.
4D	-so	1r	.	2D	dal	4F	-so,	4a	-so
2G	dal	.	.	.	.	2D	L’in-	2b	dal
.	.	.	.	4G	so-	.	.	.	.
4A	so-	.	.	[4F	-ver-	[4A	-ge-	4cc	so-
=60	=60	=60	=60	=60	=60	=60	=60	=60	=60
4B	-ver-	1r	.	4F]	.	4A]	.	4dd	-ver-
4c	-chio	.	.	2E	-chio	4G	-gno of-	4ee	-chio
2d	lu-	.	.	.	.	2F	-fe-	1a	lu-
.	.	.	.	2D	lu-	.	.	.	.
4.A	-me,	4r	.	.	.	2E	-so	.	.
.	.	2A	L’in-	2C	-me,	.	.	.	.
8G	.	.	.	.	.	.	.	.	.
8FL	.	.	.	.	.	2AA	dal	2a	-me,
8EJ	.	.	.	.	.	.	.	.	.
4D	.	[4d	-ge-	[4F	dal	.	.	.	.
=61	=61	=61	=61	=61	=61	=61	=61	=61	=61
4r	.	4d]	.	4F]	.	4BB	so-	1r	.
4A	L’in-	4c	-gno of-	4E	so-	4C	-ver-	.	.
4G	-ge-	4B	-fe-	4G	-ver-	4D	-chio	.	.
4E	-gno of-	4B	-so	4G	-chio	2E	lu-	.	.
2F	-fe-	4r	.	2A	lu-	.	.	4r	.
.	.	4A	dal	.	.	4D	-me,	4a	L’in-
4E	-so,	4B	so-	4G	-me,	4r	.	[2ee	-ge-
[4C	L’in-	[4c	-ver-	4E	L’in-	4G	L’in-	.	.
=62	=62	=62	=62	=62	=62	=62	=62	=62	=62
4C]	.	4c]	.	2.G	-ge-	4G	-ge-	4ee]	.
4G	-ge-	4B	-chio	.	.	4D	-gno of-	4dd	-gno of-
4C	-gno of-	2c	lu-	.	.	4E	-fe-	4cc	-fe-
4.F	-fe-	.	.	4F	-gno of-	4C	-so	4a	-so
.	.	2F	-me:	2F	-fe-	2c	dal	2.a	dal
8G	.	.	.	.	.	.	.	.	.
2A	.	.	.	.	.	.	.	.	.
.	.	2r	.	2E	-so	4c	so-	.	.
4G	-so	.	.	.	.	[4B	-ver-	4b	so-
=63	=63	=63	=63	=63	=63	=63	=63	=63	=63
2F	dal	1r	.	2AA	dal	8BL]	.	4cc	-ver-
.	.	.	.	.	.	8AJ	.	.	.
.	.	.	.	.	.	2A	.	4dd	-chio
2E	so-	.	.	4BB	so-	.	.	2ee	lu-
.	.	.	.	2C	-ver-	4G	-chio	.	.
4F	-ver-	4r	.	.	.	2F	lu-	1a	-me:
4D	-chio	2d	Ma	4D	-chio	.	.	.	.
2A	lu-	.	.	2E	lu-	4E	-me:	.	.
.	.	4c	se	.	.	[4A	Ma	.	.
=64	=64	=64	=64	=64	=64	=64	=64	=64	=64
2D	-me:	2f	piu	4D	-me:	4A]	.	4r	.
.	.	.	.	4D	Ma	4A	se	4dd	Ma
4r	.	2.e	tar-	4AA	se	2c	piu	2ee	se
4A	Ma	.	.	4C	piu	.	.	.	.
4E	se	.	.	8GGL	tar-	2B	tar-	2gg	piu
.	.	.	.	8AA	.	.	.	.	.
4G	piu	4d	-da,	8BB	.	.	.	.	.
.	.	.	.	8CJ	.	.	.	.	.
8DL	tar-	4r	.	4D	.	2A	-da,	2ff	tar-
8E	.	.	.	.	.	.	.	.	.
8F	.	4A	ha-	[4C	-da,	.	.	.	.
8GJ	.	.	.	.	.	.	.	.	.
=65	=65	=65	=65	=65	=65	=65	=65	=65	=65
2A	.	4A	-vrà	8CL]	.	4r	.	2ee	-da,
.	.	.	.	8D	.	.	.	.	.
.	.	4c	da	8E	.	4A	ha-	.	.
.	.	.	.	8FJ	.	.	.	.	.
1G	-da,	1B-X	pian-	2G	.	4D	-vrà	2r	.
.	.	.	.	.	.	2D	da	.	.
.	.	.	.	4r	.	.	.	2r	.
.	.	.	.	4D	ha-	2B-X	pian-	.	.
2r	.	2G	-ger	4D	-vrà	.	.	4r	.
.	.	.	.	4D	da	4B-i	-ger	[4dd	Ma
=66	=66	=66	=66	=66	=66	=66	=66	=66	=66
2r	.	2.A	sem-	4F	pian-	2.A	sem-	4dd]	.
.	.	.	.	4E	-ger	.	.	4cc	se
2D	Ma	.	.	2D	sem-	.	.	2ff	piu
.	.	4A	-pre,	.	.	4F	-pre,	.	.
4C	se	2c	Ma	4E	-pre,	2.G	Ma	2ee	tar-
2c	piu	.	.	4E	Ma	.	.	.	.
.	.	2G	se	2G	se	.	.	2dd	-da,
[4B-X	tar-	.	.	.	.	[4D	se	.	.
=67	=67	=67	=67	=67	=67	=67	=67	=67	=67
4B-]	.	4G	piu	4G	piu	4D]	.	4r	.
4A	-da,	2c	tar-	2E	tar-	4A	piu	2ee	ha-
4r	.	.	.	.	.	4.G	tar-	.	.
4E	ha-	4B	-da,	4E	-da,	.	.	2gg	-vrà
.	.	.	.	.	.	8A	.	.	.
4E	-vrà	4r	.	4r	.	4B	.	.	.
4G	da	4B	ha-	2D	Ma	4B	-da,	4dd	da
[2F	pian-	4A	-vrà	.	.	4r	.	2ff	pian-
.	.	4A	da	4C	se	4c	ha-	.	.
=68	=68	=68	=68	=68	=68	=68	=68	=68	=68
2F]	.	2.c	pian-	2F	piu	2A	-vrà	4ff	-ger
.	.	.	.	.	.	.	.	2cc	sem-
2C	-ger	.	.	2E	tar-	2G	da	.	.
.	.	2G	-ger	.	.	.	.	4cc	-pre,
2G	sem-	.	.	2D	-da,	4B-X	pian-	4r	.
.	.	4.g	sem-	.	.	4B-i	-ger	2dd	Ma
2D	-pre,	.	.	4r	.	2A	sem-	.	.
.	.	8f#i	.	.	.	.	.	.	.
.	.	4f#i	.	4D	ha-	.	.	4a	se
=69	=69	=69	=69	=69	=69	=69	=69	=69	=69
2G	Ma	4g	-pre,	2.D	-vrà	2G	-pre,	2b-X	piu
.	.	4G	Ma	.	.	.	.	.	.
2F	se	2A	se	.	.	2r	.	2a	tar-
.	.	.	.	4F	da	.	.	.	.
2C	piu	2c	piu	2.E	pian-	4r	.	2g	-da,
.	.	.	.	.	.	4G	Ma	.	.
[2G	tar-	2B	tar-	.	.	2G	se	4r	.
.	.	.	.	4D	-ger	.	.	4bnX	ha-
=70	=70	=70	=70	=70	=70	=70	=70	=70	=70
2G]	.	2B	-da,	1G	sem-	2D	piu	4b	-vrà
.	.	.	.	.	.	.	.	4dd	da
1C	-da,	4r	.	.	.	4.E	tar-	1cc	pian-
.	.	4c	ha-	.	.	.	.	.	.
.	.	.	.	.	.	8F	.	.	.
.	.	4c	-vrà	2E	-pre,	8GL	.	.	.
.	.	.	.	.	.	8AJ	.	.	.
.	.	4e	da	.	.	4.G	.	.	.
4r	.	[2d	pian-	2r	.	.	.	2a	-ger
.	.	.	.	.	.	8F#i	.	.	.
4D	ha-	.	.	.	.	4F#i	.	.	.
=71	=71	=71	=71	=71	=71	=71	=71	=71	=71
2.G	-vrà	4d]	.	2r	.	2G	-da,	2b	sem-
.	.	4d	-ger	.	.	.	.	.	.
.	.	2g	sem-	2D	Ma	2r	.	2b	-pre,
4G	da	.	.	.	.	.	.	.	.
4A	pian-	4e	-pre,	4C	se	4r	.	1r	.
4D	-ger	2d	Ma	4F	piu	4A	Ma	.	.
2A	sem-	.	.	2E	tar-	[2A	se	.	.
.	.	4c	se	.	.	.	.	.	.
=72	=72	=72	=72	=72	=72	=72	=72	=72	=72
2D	-pre,	2f	piu	4D	-da,	2A]	.	4r	.
.	.	.	.	4D	Ma	.	.	4dd	Ma
4r	.	2.e	tar-	4AA	se	2c	piu	2ee	se
4A	Ma	.	.	4C	piu	.	.	.	.
4E	se	.	.	8GGL	tar-	2B	tar-	2gg	piu
.	.	.	.	8AA	.	.	.	.	.
4G	piu	4d	-da,	8BB	.	.	.	.	.
.	.	.	.	8CJ	.	.	.	.	.
8DL	tar-	4r	.	4D	.	2A	-da,	2ff	tar-
8E	.	.	.	.	.	.	.	.	.
8F	.	4A	ha-	[4C	-da,	.	.	.	.
8GJ	.	.	.	.	.	.	.	.	.
=73	=73	=73	=73	=73	=73	=73	=73	=73	=73
2A	.	4A	-vrà	8CL]	.	4r	.	2ee	-da,
.	.	.	.	8D	.	.	.	.	.
.	.	4c	da	8E	.	4A	ha-	.	.
.	.	.	.	8FJ	.	.	.	.	.
1G	-da,	1B-X	pian-	2G	.	4D	-vrà	2r	.
.	.	.	.	.	.	2D	da	.	.
.	.	.	.	4r	.	.	.	2r	.
.	.	.	.	4D	ha-	2B-X	pian-	.	.
2r	.	2G	-ger	4D	-vrà	.	.	4r	.
.	.	.	.	4D	da	4B-i	-ger	[4dd	Ma
=74	=74	=74	=74	=74	=74	=74	=74	=74	=74
2r	.	2.A	sem-	4F	pian-	2.A	sem-	4dd]	.
.	.	.	.	4E	-ger	.	.	4cc	se
2D	Ma	.	.	2D	sem-	.	.	2ff	piu
.	.	4A	-pre,	.	.	4F	-pre,	.	.
4C	se	2c	Ma	4E	-pre,	2.G	Ma	2ee	tar-
2c	piu	.	.	4E	Ma	.	.	.	.
.	.	2G	se	2G	se	.	.	2dd	-da,
[4B-i	tar-	.	.	.	.	[4D	se	.	.
=75	=75	=75	=75	=75	=75	=75	=75	=75	=75
4B-]	.	4G	piu	4G	piu	4D]	.	4r	.
4A	-da,	2c	tar-	2E	tar-	4A	piu	2ee	ha-
4r	.	.	.	.	.	4.G	tar-	.	.
4E	ha-	4B	-da,	4E	-da,	.	.	2gg	-vrà
.	.	.	.	.	.	8A	.	.	.
4E	-vrà	4r	.	4r	.	4B	.	.	.
4G	da	4B	ha-	2D	Ma	4B	-da,	4dd	da
[2F	pian-	4A	-vrà	.	.	4r	.	2ff	pian-
.	.	4A	da	4C	se	4c	ha-	.	.
=76	=76	=76	=76	=76	=76	=76	=76	=76	=76
2F]	.	2.c	pian-	2F	piu	2A	-vrà	4ff	-ger
.	.	.	.	.	.	.	.	2cc	sem-
2C	-ger	.	.	2E	tar-	2G	da	.	.
.	.	2G	-ger	.	.	.	.	4cc	-pre,
2G	sem-	.	.	2D	-da,	4B-X	pian-	4r	.
.	.	4.g	sem-	.	.	4B-i	-ger	2dd	Ma
2D	-pre,	.	.	4r	.	2A	sem-	.	.
.	.	8f#i	.	.	.	.	.	.	.
.	.	4f#i	.	4D	ha-	.	.	4a	se
=77	=77	=77	=77	=77	=77	=77	=77	=77	=77
2G	Ma	4g	-pre,	2.D	-vrà	2G	-pre,	2b-X	piu
.	.	4G	Ma	.	.	.	.	.	.
2F	se	2A	se	.	.	2r	.	2a	tar-
.	.	.	.	4F	da	.	.	.	.
2C	piu	2c	piu	2.E	pian-	4r	.	2g	-da,
.	.	.	.	.	.	4G	Ma	.	.
[2G	tar-	2B	tar-	.	.	2G	se	4r	.
.	.	.	.	4D	-ger	.	.	4bnXny	ha-
=78	=78	=78	=78	=78	=78	=78	=78	=78	=78
2G]	.	2B	-da,	1G	sem-	2D	piu	4b	-vrà
.	.	.	.	.	.	.	.	4dd	da
1C	-da,	4r	.	.	.	4.E	tar-	1cc	pian-
.	.	4c	ha-	.	.	.	.	.	.
.	.	.	.	.	.	8F	.	.	.
.	.	4c	-vrà	2E	-pre,	8GL	.	.	.
.	.	.	.	.	.	8AJ	.	.	.
.	.	4G	da	.	.	2G	.	.	.
4r	.	[2d	pian-	2r	.	.	.	2a	-ger
4D	ha-	.	.	.	.	4F#X	-da,	.	.
=79	=79	=79	=79	=79	=79	=79	=79	=79	=79
2G	-vrà	4d]	.	2D	ha-	4r	.	4.b	sem-
.	.	4B	-ger	.	.	4G	ha-	.	.
.	.	.	.	.	.	.	.	8cc	.
4G	da	2B	sem-	4D	-vrà	4G	-vrà	8ddL	.
.	.	.	.	.	.	.	.	8bJ	.
2E	pian-	.	.	4GG	da	4G	da	2ee	.
.	.	[1Gl	-pre.	4C	pian-	4G	pian-	.	.
4G	-ger	.	.	4BB	-ger	4G	-ger	4dd	.
2C	sem-	.	.	2E	sem-	2G	sem-	2cc	.
=80	=80	=80	=80	=80	=80	=80	=80	=80	=80
0Gl	-pre.	0G]	.	0Dl	-pre.	0Gl	-pre.	0bl	-pre.
==	==	==	==	==	==	==	==	==	==
*-	*-	*-	*-	*-	*-	*-	*-	*-	*-
!!!system-decoration: s1,s2,s3,s4,s5
!!!RDF**kern: i = editorial accidental
!!!RDF**kern: l = terminal long
!!!ENC: Janosch Umbreit
!!!END: 2026/04/17
!!!EED: Benjamin Ory
!!!EEV: 2026/05/18
!!!YEC: Copyright 2026 Jessie Ann Owens and Scott Metcalfe, All Rights Reserved
!!!ONB: Translated from MusicXML on 2026/05/18
!!!verovio: header encoded
!!!header-left: Edited by Jessie Ann Owens and Scott Metcalfe (2026)\n
!!!header-right:
!!!header-center:
!!muse2ps: C^@{COM}^i2I150v75,75,75,75,110c122z18l2780t100
